X:350
T:When the Saints Go Marching In
M:C
L:1/4
K:G
z GBc | d4 | z GBc | d4 | z GBc | 
d2B2 | G2B2 | A4 | z BBA | 
G4 | B2d2 | dc3 | z2 Bc | 
d2B2 | G2 A2 | G4 | z |] 

